assets/img/contribution-hearth.svg

<svg fill="none" height="517" viewBox="0 0 560 517" width="560" xmlns="http://www.w3.org/2000/svg" xmlns:xlink="http://www.w3.org/1999/xlink"><mask id="a" fill="#fff"><path d="m383.69 0c-37.406 0-73.719 11.922-103.69 33.688-29.969-21.875-66.281-33.688-103.69-33.688-97.234 0-176.31 79.078-176.31 176.2 0 88.047 124.36 202.56 215.25 286.23 20.781 19.141 38.719 35.656 52.391 49.328 3.281 3.281 7.766 5.141 12.359 5.141s9.078-1.86 12.359-5.141c13.672-13.672 31.609-30.297 52.391-49.328 90.891-83.672 215.25-198.19 215.25-286.23 0-97.125-79.078-176.2-176.31-176.2zm-62.562 436.73c-15.422 14.109-29.203 26.906-41.125 38.281-11.922-11.375-25.703-24.172-41.016-38.281-42.109-38.828-94.5-87.062-135.52-134.75-45.5-52.719-68.469-95.047-68.469-125.78 0-77.875 63.328-141.31 141.31-141.31 33.906 0 66.719 12.141 92.312 34.234 6.562 5.6875 16.297 5.6875 22.859 0 25.594-22.094 58.406-34.234 92.312-34.234 77.766.1094 141.2 63.438 141.2 141.31 0 30.734-22.969 73.062-68.359 125.78-41.016 47.688-93.406 95.922-135.52 134.75z" fill="#fff"/></mask><path d="m383.69 0c-37.406 0-73.719 11.922-103.69 33.688-29.969-21.875-66.281-33.688-103.69-33.688-97.234 0-176.31 79.078-176.31 176.2 0 88.047 124.36 202.56 215.25 286.23 20.781 19.141 38.719 35.656 52.391 49.328 3.281 3.281 7.766 5.141 12.359 5.141s9.078-1.86 12.359-5.141c13.672-13.672 31.609-30.297 52.391-49.328 90.891-83.672 215.25-198.19 215.25-286.23 0-97.125-79.078-176.2-176.31-176.2zm-62.562 436.73c-15.422 14.109-29.203 26.906-41.125 38.281-11.922-11.375-25.703-24.172-41.016-38.281-42.109-38.828-94.5-87.062-135.52-134.75-45.5-52.719-68.469-95.047-68.469-125.78 0-77.875 63.328-141.31 141.31-141.31 33.906 0 66.719 12.141 92.312 34.234 6.562 5.6875 16.297 5.6875 22.859 0 25.594-22.094 58.406-34.234 92.312-34.234 77.766.1094 141.2 63.438 141.2 141.31 0 30.734-22.969 73.062-68.359 125.78-41.016 47.688-93.406 95.922-135.52 134.75z" fill="#64748b" mask="url(#a)" stroke="#fff" stroke-width="8"/></svg>

<svg width="560" height="517" viewBox="0 0 560 517" fill="none" xmlns="http://www.w3.org/2000/svg">
<mask id="path-1-inside-1_15_815" fill="white">
<path d="M383.69 0C346.284 0 309.971 11.922 280 33.688C250.031 11.813 213.719 0 176.31 0C79.076 0 0 79.078 0 176.2C0 264.247 124.36 378.76 215.25 462.43C236.031 481.571 253.969 498.086 267.641 511.758C270.922 515.039 275.407 516.899 280 516.899C284.593 516.899 289.078 515.039 292.359 511.758C306.031 498.086 323.968 481.461 344.75 462.43C435.641 378.758 560 264.24 560 176.2C560 79.075 480.922 0 383.69 0V0ZM321.128 436.73C305.706 450.839 291.925 463.636 280.003 475.011C268.081 463.636 254.3 450.839 238.987 436.73C196.878 397.902 144.487 349.668 103.467 301.98C57.967 249.261 34.998 206.933 34.998 176.2C34.998 98.325 98.326 34.89 176.308 34.89C210.214 34.89 243.027 47.031 268.62 69.124C275.182 74.8115 284.917 74.8115 291.479 69.124C317.073 47.03 349.885 34.89 383.791 34.89C461.557 34.9994 524.991 98.328 524.991 176.2C524.991 206.934 502.022 249.262 456.632 301.98C415.616 349.668 363.226 397.902 321.112 436.73H321.128Z"/>
</mask>
<path d="M383.69 0C346.284 0 309.971 11.922 280 33.688C250.031 11.813 213.719 0 176.31 0C79.076 0 0 79.078 0 176.2C0 264.247 124.36 378.76 215.25 462.43C236.031 481.571 253.969 498.086 267.641 511.758C270.922 515.039 275.407 516.899 280 516.899C284.593 516.899 289.078 515.039 292.359 511.758C306.031 498.086 323.968 481.461 344.75 462.43C435.641 378.758 560 264.24 560 176.2C560 79.075 480.922 0 383.69 0V0ZM321.128 436.73C305.706 450.839 291.925 463.636 280.003 475.011C268.081 463.636 254.3 450.839 238.987 436.73C196.878 397.902 144.487 349.668 103.467 301.98C57.967 249.261 34.998 206.933 34.998 176.2C34.998 98.325 98.326 34.89 176.308 34.89C210.214 34.89 243.027 47.031 268.62 69.124C275.182 74.8115 284.917 74.8115 291.479 69.124C317.073 47.03 349.885 34.89 383.791 34.89C461.557 34.9994 524.991 98.328 524.991 176.2C524.991 206.934 502.022 249.262 456.632 301.98C415.616 349.668 363.226 397.902 321.112 436.73H321.128Z" fill="#64748b" stroke="white" stroke-width="8" mask="url(#path-1-inside-1_15_815)"/>
</svg>
